Origami/64x64/apps/eric.svg

<svg width="64" height="64" version="1.1" viewBox="0 0 64 64" xmlns="http://www.w3.org/2000/svg">
 <path d="m56 31.5c0 5.816-3.344 10.5-7.5 10.5h-4.5v2h4.5c4.156 0 7.5-4.684 7.5-10.5zm-36 15v2c0 4.155 4.683 7.5 10.5 7.5h3c5.816 0 10.5-3.344 10.5-7.5v-2c0 4.156-4.684 7.5-10.5 7.5h-3c-5.816 0-10.5-3.344-10.5-7.5z" style="opacity:.2"/>
 <path d="m44 19v6c0 3.324-2.676 6-6 6h-12s-6 0-6 6v10.5c0 4.156 4.684 7.5 10.5 7.5h3c5.816 0 10.5-3.344 10.5-7.5v-4.5h4.5c4.156 0 7.5-4.684 7.5-10.5v-3c0-5.816-3.344-10.5-7.5-10.5h-4.5zm-6 28a2 2 0 0 1 2 2 2 2 0 0 1 -2 2 2 2 0 0 1 -2 -2 2 2 0 0 1 2 -2z" style="fill:#ffc851"/>
 <path d="m44 19v1h4.5c4.156 0 7.5 4.684 7.5 10.5v-1c0-5.816-3.344-10.5-7.5-10.5h-4.5zm0 6c0 3.324-2.676 6-6 6h-12s-6 0-6 6v1c0-6 6-6 6-6h12c3.324 0 6-2.676 6-6v-1z" style="fill:#ffffff;opacity:.1"/>
 <path d="m44 24c0 6-6 6-6 6h-12c-3.324 0-6 2.676-6 6v2c0-3.324 2.676-6 6-6h12s6 0 6-6zm-36 7.5v2c0 5.816 3.345 10.5 7.5 10.5h4.5v-2h-4.5c-4.155 0-7.5-4.684-7.5-10.5z" style="opacity:.2"/>
 <path d="m30.5 7c-5.816 0-10.5 3.345-10.5 7.5v4.5h-4.5c-4.155 0-7.5 4.684-7.5 10.5v3c0 5.816 3.345 10.5 7.5 10.5h4.5v-6c0-3.324 2.676-6 6-6h12s6 0 6-6v-10.5c0-4.155-4.684-7.5-10.5-7.5h-3z" style="fill:#4795d1"/>
 <path d="m26 12a2 2 0 0 1 2 2 2 2 0 0 1 -2 2 2 2 0 0 1 -2 -2 2 2 0 0 1 2 -2z" style="opacity:.2"/>
 <path d="m26 11a2 2 0 0 1 2 2 2 2 0 0 1 -2 2 2 2 0 0 1 -2 -2 2 2 0 0 1 2 -2z" style="fill:#ffffff"/>
 <path d="m30.5 7c-5.816 0-10.5 3.345-10.5 7.5v1c0-4.155 4.684-7.5 10.5-7.5h3c5.816 0 10.5 3.345 10.5 7.5v-1c0-4.155-4.684-7.5-10.5-7.5h-3zm-15 12c-4.155 0-7.5 4.684-7.5 10.5v1c0-5.816 3.345-10.5 7.5-10.5h4.5v-1h-4.5z" style="fill:#ffffff;opacity:.1"/>
 <path d="M 63.958,44.848 A 16,16 0 0 1 48,60 16,16 0 0 1 32.042,45.152 16,16 0 0 0 32,46 16,16 0 0 0 48,62 16,16 0 0 0 64,46 16,16 0 0 0 63.958,44.848 Z" style="fill-rule:evenodd;opacity:.2"/>
 <circle cx="48" cy="45" r="16" style="fill-rule:evenodd;fill:#cc5e55"/>
 <path d="m46 37-0.1764 2.1072a6.2858 6.2858 0 0 0 -1.83704 1.06252l-1.91518-0.9018-2 3.4642 1.73882 1.2076a6.2858 6.2858 0 0 0 -0.096 1.06026 6.2858 6.2858 0 0 0 0.0914 1.06474l-1.73438 1.20312 2 3.4642 1.91072-0.89956a6.2858 6.2858 0 0 0 1.8415 1.0558l0.1764 2.1116h4l0.1764-2.1072a6.2858 6.2858 0 0 0 1.83708 -1.06252l1.91516 0.9018 2-3.4642-1.73884-1.2076a6.2858 6.2858 0 0 0 0.096 -1.06026 6.2858 6.2858 0 0 0 -0.0914 -1.06474l1.73438-1.20312-2-3.4642-1.91072 0.89956a6.2858 6.2858 0 0 0 -1.842 -1.056l-0.176-2.112h-4zm2 5.7144a2.2858 2.2858 0 0 1 2.286 2.286 2.2858 2.2858 0 0 1 -2.286 2.286 2.2858 2.2858 0 0 1 -2.286 -2.286 2.2858 2.2858 0 0 1 2.286 -2.286z" style="fill:#ffffff"/>
</svg>

<svg xmlns="http://www.w3.org/2000/svg" width="64" height="64" version="1.1" viewBox="0 0 64 64">
 <path style="opacity:0.2" d="M 56,31.5 C 56,37.316 52.656,42 48.5,42 l -4.5,0 0,2 4.5,0 C 52.656,44 56,39.316 56,33.5 Z m -36,15 0,2 c 0,4.155 4.683,7.5 10.5,7.5 l 3,0 C 39.316,56 44,52.656 44,48.5 l 0,-2 C 44,50.656 39.316,54 33.5,54 l -3,0 C 24.684,54 20,50.656 20,46.5 Z"/>
 <path style="fill:#ffc851" d="m 44,19 0,6 c 0,3.324 -2.676,6 -6,6 l -12,0 c 0,0 -6,0 -6,6 l 0,10.5 c 0,4.156 4.684,7.5 10.5,7.5 l 3,0 C 39.316,55 44,51.656 44,47.5 l 0,-4.5 4.5,0 C 52.656,43 56,38.316 56,32.5 l 0,-3 C 56,23.684 52.656,19 48.5,19 L 44,19 Z m -6,28 a 2,2 0 0 1 2,2 2,2 0 0 1 -2,2 2,2 0 0 1 -2,-2 2,2 0 0 1 2,-2 z"/>
 <path style="opacity:0.1;fill:#ffffff" d="M 44 19 L 44 20 L 48.5 20 C 52.656 20 56 24.684 56 30.5 L 56 29.5 C 56 23.684 52.656 19 48.5 19 L 44 19 z M 44 25 C 44 28.324 41.324 31 38 31 L 26 31 C 26 31 20 31 20 37 L 20 38 C 20 32 26 32 26 32 L 38 32 C 41.324 32 44 29.324 44 26 L 44 25 z"/>
 <path style="opacity:0.2" d="m 44,24 c 0,6 -6,6 -6,6 l -12,0 c -3.324,0 -6,2.676 -6,6 l 0,2 c 0,-3.324 2.676,-6 6,-6 l 12,0 c 0,0 6,0 6,-6 z m -36,7.5 0,2 C 8,39.316 11.345,44 15.5,44 l 4.5,0 0,-2 -4.5,0 C 11.345,42 8,37.316 8,31.5 Z"/>
 <path style="fill:#4795d1" d="M 30.5,7 C 24.684,7 20,10.345 20,14.5 l 0,4.5 -4.5,0 C 11.345,19 8,23.684 8,29.5 l 0,3 C 8,38.316 11.345,43 15.5,43 l 4.5,0 0,-6 c 0,-3.324 2.676,-6 6,-6 l 12,0 c 0,0 6,0 6,-6 L 44,14.5 C 44,10.345 39.316,7 33.5,7 l -3,0 z"/>
 <path style="opacity:0.2" d="m 26,12 a 2,2 0 0 1 2,2 2,2 0 0 1 -2,2 2,2 0 0 1 -2,-2 2,2 0 0 1 2,-2 z"/>
 <path style="fill:#ffffff" d="m 26,11 a 2,2 0 0 1 2,2 2,2 0 0 1 -2,2 2,2 0 0 1 -2,-2 2,2 0 0 1 2,-2 z"/>
 <path style="opacity:0.1;fill:#ffffff" d="M 30.5 7 C 24.684 7 20 10.345 20 14.5 L 20 15.5 C 20 11.345 24.684 8 30.5 8 L 33.5 8 C 39.316 8 44 11.345 44 15.5 L 44 14.5 C 44 10.345 39.316 7 33.5 7 L 30.5 7 z M 15.5 19 C 11.345 19 8 23.684 8 29.5 L 8 30.5 C 8 24.684 11.345 20 15.5 20 L 20 20 L 20 19 L 15.5 19 z"/>
 <path style="opacity:0.2;fill-rule:evenodd" d="M 63.958,44.848 A 16,16 0 0 1 48,60 16,16 0 0 1 32.042,45.152 16,16 0 0 0 32,46 16,16 0 0 0 48,62 16,16 0 0 0 64,46 16,16 0 0 0 63.958,44.848 Z"/>
 <circle style="fill:#cc5e55;fill-rule:evenodd" cx="48" cy="45" r="16"/>
 <path style="fill:#ffffff" d="m 46,37 -0.1764,2.1072 a 6.2858,6.2858 0 0 0 -1.83704,1.06252 l -1.91518,-0.9018 -2,3.4642 1.73882,1.2076 a 6.2858,6.2858 0 0 0 -0.096,1.06026 6.2858,6.2858 0 0 0 0.0914,1.06474 l -1.73438,1.20312 2,3.4642 1.91072,-0.89956 a 6.2858,6.2858 0 0 0 1.8415,1.0558 l 0.1764,2.1116 4,0 0.1764,-2.1072 a 6.2858,6.2858 0 0 0 1.83708,-1.06252 l 1.91516,0.9018 2,-3.4642 -1.73884,-1.2076 a 6.2858,6.2858 0 0 0 0.096,-1.06026 6.2858,6.2858 0 0 0 -0.0914,-1.06474 l 1.73438,-1.20312 -2,-3.4642 -1.91072,0.89956 a 6.2858,6.2858 0 0 0 -1.842,-1.056 l -0.176,-2.112 -4,0 z m 2,5.7144 a 2.2858,2.2858 0 0 1 2.286,2.286 A 2.2858,2.2858 0 0 1 48,47.2864 2.2858,2.2858 0 0 1 45.714,45.0004 2.2858,2.2858 0 0 1 48,42.7144 Z"/>
</svg>
